src/assets/bg_leaderboard_bottom2.svg

<svg width="565" height="91" viewBox="0 0 565 91" fill="none" xmlns="http://www.w3.org/2000/svg">
<path d="M381.726 34.0617L383.319 32.9285L385.342 31.489L388.314 29.3143L390.183 27.9667L394.78 24.6588L403.82 25.9452L405.322 26.1902L426.19 29.1306L435.905 30.4782L445.527 31.8259L447.488 32.1015L494.19 0.952412L513.833 0.339844L513.955 0.370472L554.314 4.01526L559.462 6.40427L564.579 14.2758L538.287 14.2145L532.74 21.9023L515.641 45.5474L494.833 74.3381L482.821 91L431.553 83.8636L415.833 68.1206L381.726 34.0617Z" fill="url(#paint0_linear_444_19766)"/>
<path opacity="0.5" d="M463.699 21.2898L489.256 4.22974C491.555 9.71223 493.669 16.0523 494.435 21.5961C496.243 34.8582 500.35 35.8383 510.524 43.1585C512.27 44.4142 513.986 45.1187 515.641 45.5475L494.834 74.3382C490.023 69.4377 485.058 63.9245 484.568 56.39C483.802 43.7404 486.161 36.4202 470.717 27.1398C468.112 25.5778 465.783 23.5563 463.699 21.2898Z" fill="url(#paint1_linear_444_19766)"/>
<path opacity="0.5" d="M381.726 34.0619L383.319 32.9286L390.214 27.9668L394.811 24.6589L403.851 25.9453L405.322 26.1597L435.905 30.4477C443.535 34.6132 449.909 41.3208 449.909 41.3208L431.553 83.8024L381.726 34.0619Z" fill="url(#paint2_linear_444_19766)"/>
<path d="M447.488 32.1016L445.527 31.826L435.905 30.4783L426.191 29.1307L405.322 26.1904L403.82 25.9453L394.78 24.6589L390.184 27.9668L449.817 41.3514L447.519 32.1016H447.488Z" fill="url(#paint3_linear_444_19766)"/>
<path d="M513.955 0.370472L513.833 0.339844L494.19 0.952412L447.519 32.1015L449.817 41.3513L449.909 41.3819L513.955 0.370472Z" fill="url(#paint4_linear_444_19766)"/>
<path d="M538.287 14.2144L545.611 9.22197L554.314 4.01514L559.462 6.40415L564.58 14.2757L538.287 14.2144Z" fill="url(#paint5_linear_444_19766)"/>
<path d="M538.287 14.2142L551.525 10.4163L555.754 11.1513L557.378 14.2448L538.287 14.2142Z" fill="url(#paint6_linear_444_19766)"/>
<path opacity="0.5" d="M538.286 14.2145L482.82 90.9999L532.311 8.08878L545.243 3.18823L554.313 4.0152L538.286 14.2145Z" fill="url(#paint7_linear_444_19766)"/>
<path d="M532.311 22.4841L482.821 90.9999L431.584 83.8635C431.584 83.8635 479.512 88.5803 481.963 87.7533C484.384 86.9264 532.311 22.4841 532.311 22.4841Z" fill="url(#paint8_linear_444_19766)"/>
<g style="mix-blend-mode:lighten" opacity="0.5">
<path d="M381.726 34.0617L383.319 32.9285L385.372 31.4583L388.345 29.2837L390.214 27.936L394.811 24.6282L403.851 25.9146L405.322 26.129L426.19 29.0693L421.226 34.8581C403.606 41.0756 407.283 53.8171 415.833 68.0593L381.726 34.0617Z" fill="url(#paint9_linear_444_19766)"/>
</g>
<path d="M183.274 34.0617L181.68 32.9285L179.658 31.489L176.685 29.3143L174.816 27.9667L170.219 24.6588L161.179 25.9452L159.678 26.1902L138.809 29.1306L129.095 30.4782L119.473 31.8259L117.511 32.1015L70.8096 0.952412L51.1667 0.339844L51.0441 0.370472L10.6857 4.01526L5.5375 6.40427L0.419922 14.2758L26.7126 14.2145L32.2592 21.9023L49.3587 45.5474L70.1661 74.3381L82.1786 91L133.446 83.8636L149.167 68.1206L183.274 34.0617Z" fill="url(#paint10_linear_444_19766)"/>
<path opacity="0.5" d="M101.3 21.2898L75.7431 4.22974C73.4447 9.71223 71.3303 16.0523 70.5642 21.5961C68.7562 34.8582 64.6499 35.8383 54.476 43.1585C52.7293 44.4142 51.0132 45.1187 49.3584 45.5475L70.1658 74.3382C74.9769 69.4377 79.9413 63.9245 80.4316 56.39C81.1977 43.7404 78.8381 36.4202 94.2828 27.1398C96.8875 25.5778 99.2165 23.5563 101.3 21.2898Z" fill="url(#paint11_linear_444_19766)"/>
<path opacity="0.5" d="M183.274 34.0619L181.681 32.9286L174.786 27.9668L170.189 24.6589L161.149 25.9453L159.678 26.1597L129.095 30.4477C121.465 34.6132 115.091 41.3208 115.091 41.3208L133.416 83.8637L183.274 34.0619Z" fill="url(#paint12_linear_444_19766)"/>
<path d="M117.511 32.1015L70.8094 0.952412L51.1665 0.339844L51.0439 0.370472L115.09 41.3513L117.603 32.1015H117.511Z" fill="url(#paint13_linear_444_19766)"/>
<path d="M174.816 27.9668L170.22 24.6589L161.18 25.9453L159.678 26.1904L138.809 29.1307L129.095 30.4783L119.473 31.826L117.604 32.1016L115.091 41.3514V41.3821L174.816 27.9668Z" fill="url(#paint14_linear_444_19766)"/>
<path d="M26.7126 14.2144L19.3887 9.22197L10.6857 4.01514L5.5375 6.40415L0.419922 14.2757L26.7126 14.2144Z" fill="url(#paint15_linear_444_19766)"/>
<path d="M26.7123 14.2142L13.474 10.4163L9.24514 11.1513L7.46777 14.2448L26.7123 14.2142Z" fill="url(#paint16_linear_444_19766)"/>
<path opacity="0.5" d="M26.713 14.2143L82.179 90.9997L32.6886 13.1423L22.239 2.97363L11.8506 4.015L26.713 14.2143Z" fill="url(#paint17_linear_444_19766)"/>
<path d="M32.6885 22.4841L82.1789 90.9999L133.416 83.8635C133.416 83.8635 85.4884 88.5803 83.0369 87.7533C80.616 86.9264 32.6885 22.4841 32.6885 22.4841Z" fill="url(#paint18_linear_444_19766)"/>
<g style="mix-blend-mode:lighten" opacity="0.5">
<path d="M183.274 34.0617L181.681 32.9285L179.628 31.4583L176.655 29.2837L174.786 27.936L170.189 24.6282L161.149 25.9146L159.678 26.129L138.81 29.1306L143.774 34.9193C161.394 41.1369 157.717 53.8783 149.167 68.1205L183.274 34.0617Z" fill="url(#paint19_linear_444_19766)"/>
</g>
<path d="M167.154 31.0596C167.154 24.842 172.211 19.7883 178.431 19.7883C184.652 19.7883 189.708 24.842 189.708 31.0596C189.708 37.2772 184.652 42.3309 178.431 42.3309C172.211 42.3615 167.154 37.3078 167.154 31.0596Z" fill="url(#paint20_radial_444_19766)"/>
<g opacity="0.5">
<path opacity="0.5" d="M170.832 39.36C169.392 37.7673 168.503 35.6846 168.503 33.3569C168.503 28.3951 172.517 24.3827 177.482 24.3827C182.446 24.3827 186.461 28.3951 186.461 33.3569C186.461 38.1655 182.691 42.0553 177.941 42.3004C178.095 42.3004 178.248 42.3616 178.401 42.3616C184.622 42.3616 189.678 37.3079 189.678 31.0904C189.678 24.8728 184.622 19.8191 178.401 19.8191C172.18 19.8191 167.124 24.8728 167.124 31.0904C167.155 34.3676 168.595 37.3079 170.832 39.36Z" fill="url(#paint21_linear_444_19766)"/>
</g>
<path d="M175.613 39.6054C177.727 40.1261 179.474 36.6038 176.777 35.5931C174.081 34.5824 173.56 32.7446 173.1 34.7661C172.64 36.7876 173.437 39.0541 175.613 39.6054Z" fill="url(#paint22_linear_444_19766)"/>
<path d="M397.844 31.0598C397.844 24.8423 392.788 19.7886 386.567 19.7886C380.346 19.7886 375.29 24.8423 375.29 31.0598C375.29 37.2774 380.346 42.3311 386.567 42.3311C392.788 42.3617 397.844 37.308 397.844 31.0598Z" fill="url(#paint23_radial_444_19766)"/>
<g opacity="0.5">
<path opacity="0.5" d="M394.166 39.36C395.607 37.7673 396.495 35.6846 396.495 33.3569C396.495 28.3951 392.481 24.3827 387.517 24.3827C382.552 24.3827 378.538 28.3951 378.538 33.3569C378.538 38.1655 382.307 42.0553 387.057 42.3004C386.904 42.3004 386.751 42.3616 386.597 42.3616C380.377 42.3616 375.32 37.3079 375.32 31.0904C375.32 24.8728 380.377 19.8191 386.597 19.8191C392.818 19.8191 397.874 24.8728 397.874 31.0904C397.844 34.3676 396.404 37.3079 394.166 39.36Z" fill="url(#paint24_linear_444_19766)"/>
</g>
<path d="M389.386 39.6054C387.272 40.1261 385.525 36.6038 388.222 35.5931C390.919 34.5824 391.44 32.7446 391.899 34.7661C392.359 36.7876 391.562 39.0541 389.386 39.6054Z" fill="url(#paint25_linear_444_19766)"/>
<defs>
<linearGradient id="paint0_linear_444_19766" x1="425.757" y1="88.0695" x2="480.435" y2="14.2734" gradientUnits="userSpaceOnUse">
<stop stop-color="#BF4A00"/>
<stop offset="0.7289" stop-color="#FFAF06"/>
<stop offset="1" stop-color="#FF9404"/>
</linearGradient>
<linearGradient id="paint1_linear_444_19766" x1="509.825" y1="-9.47067" x2="489.187" y2="34.5028" gradientUnits="userSpaceOnUse">
<stop stop-color="#F9B900"/>
<stop offset="1" stop-color="#FFEB67"/>
</linearGradient>
<linearGradient id="paint2_linear_444_19766" x1="473.755" y1="59.9487" x2="367.68" y2="49.9782" gradientUnits="userSpaceOnUse">
<stop stop-color="#B41D00"/>
<stop offset="1" stop-color="#F1D0D0"/>
</linearGradient>
<linearGradient id="paint3_linear_444_19766" x1="415.109" y1="32.086" x2="381.732" y2="27.8078" gradientUnits="userSpaceOnUse">
<stop stop-color="#AF4B00"/>
<stop offset="1" stop-color="#661200"/>
</linearGradient>
<linearGradient id="paint4_linear_444_19766" x1="474.941" y1="19.9662" x2="441" y2="15.6157" gradientUnits="userSpaceOnUse">
<stop stop-color="#AF4B00"/>
<stop offset="1" stop-color="#661200"/>
</linearGradient>
<linearGradient id="paint5_linear_444_19766" x1="551.542" y1="-8.81297" x2="551.41" y2="18.6987" gradientUnits="userSpaceOnUse">
<stop stop-color="#AF4B00"/>
<stop offset="1" stop-color="#661200"/>
</linearGradient>
<linearGradient id="paint6_linear_444_19766" x1="547.942" y1="12.1602" x2="548.719" y2="-3.06458" gradientUnits="userSpaceOnUse">
<stop stop-color="#550900"/>
<stop offset="1" stop-color="#961E00"/>
</linearGradient>
<linearGradient id="paint7_linear_444_19766" x1="519.308" y1="-106.641" x2="518.169" y2="129" gradientUnits="userSpaceOnUse">
<stop stop-color="#F9B900"/>
<stop offset="1" stop-color="#FFEB67"/>
</linearGradient>
<linearGradient id="paint8_linear_444_19766" x1="517.31" y1="-22.1201" x2="484.099" y2="48.6466" gradientUnits="userSpaceOnUse">
<stop stop-color="#F9B900"/>
<stop offset="1" stop-color="#FFEB67"/>
</linearGradient>
<linearGradient id="paint9_linear_444_19766" x1="403.453" y1="35.338" x2="410.535" y2="-17.2605" gradientUnits="userSpaceOnUse">
<stop stop-color="#B41D00"/>
<stop offset="1" stop-color="#F1D0D0"/>
</linearGradient>
<linearGradient id="paint10_linear_444_19766" x1="160.287" y1="5.39048" x2="66.5493" y2="46.3828" gradientUnits="userSpaceOnUse">
<stop stop-color="#BF4A00"/>
<stop offset="0.7289" stop-color="#FFAF06"/>
<stop offset="1" stop-color="#FF9404"/>
</linearGradient>
<linearGradient id="paint11_linear_444_19766" x1="55.1741" y1="-9.47067" x2="75.8114" y2="34.5028" gradientUnits="userSpaceOnUse">
<stop stop-color="#F9B900"/>
<stop offset="1" stop-color="#FFEB67"/>
</linearGradient>
<linearGradient id="paint12_linear_444_19766" x1="91.2444" y1="59.9487" x2="197.322" y2="49.9782" gradientUnits="userSpaceOnUse">
<stop stop-color="#B41D00"/>
<stop offset="1" stop-color="#F1D0D0"/>
</linearGradient>
<linearGradient id="paint13_linear_444_19766" x1="105.632" y1="27.6129" x2="48.8836" y2="-1.28654" gradientUnits="userSpaceOnUse">
<stop stop-color="#AF4B00"/>
<stop offset="1" stop-color="#661200"/>
</linearGradient>
<linearGradient id="paint14_linear_444_19766" x1="177.781" y1="21.0445" x2="102.496" y2="42.503" gradientUnits="userSpaceOnUse">
<stop stop-color="#AF4B00"/>
<stop offset="1" stop-color="#661200"/>
</linearGradient>
<linearGradient id="paint15_linear_444_19766" x1="13.4517" y1="-8.81297" x2="13.583" y2="18.6987" gradientUnits="userSpaceOnUse">
<stop stop-color="#AF4B00"/>
<stop offset="1" stop-color="#661200"/>
</linearGradient>
<linearGradient id="paint16_linear_444_19766" x1="16.9764" y1="12.163" x2="16.2022" y2="-3.06152" gradientUnits="userSpaceOnUse">
<stop stop-color="#550900"/>
<stop offset="1" stop-color="#961E00"/>
</linearGradient>
<linearGradient id="paint17_linear_444_19766" x1="46.2747" y1="-107.123" x2="47.4138" y2="129.09" gradientUnits="userSpaceOnUse">
<stop stop-color="#F9B900"/>
<stop offset="1" stop-color="#FFEB67"/>
</linearGradient>
<linearGradient id="paint18_linear_444_19766" x1="47.69" y1="-22.1201" x2="80.9009" y2="48.6466" gradientUnits="userSpaceOnUse">
<stop stop-color="#F9B900"/>
<stop offset="1" stop-color="#FFEB67"/>
</linearGradient>
<linearGradient id="paint19_linear_444_19766" x1="161.547" y1="35.338" x2="154.464" y2="-17.2605" gradientUnits="userSpaceOnUse">
<stop stop-color="#B41D00"/>
<stop offset="1" stop-color="#F1D0D0"/>
</linearGradient>
<radialGradient id="paint20_radial_444_19766" cx="0" cy="0" r="1" gradientUnits="userSpaceOnUse" gradientTransform="translate(174.363 37.9786) scale(18.3635 18.3541)">
<stop offset="0.162" stop-color="#FFAF06"/>
<stop offset="0.7151" stop-color="#AF4B00"/>
<stop offset="1" stop-color="#661200"/>
</radialGradient>
<linearGradient id="paint21_linear_444_19766" x1="180.049" y1="21.6237" x2="177.272" y2="37.9044" gradientUnits="userSpaceOnUse">
<stop stop-color="#B41D00"/>
<stop offset="1" stop-color="#F1D0D0"/>
</linearGradient>
<linearGradient id="paint22_linear_444_19766" x1="178.146" y1="36.7588" x2="172.963" y2="36.7588" gradientUnits="userSpaceOnUse">
<stop stop-color="#F1D0D0"/>
<stop offset="1" stop-color="#FFEF89"/>
</linearGradient>
<radialGradient id="paint23_radial_444_19766" cx="0" cy="0" r="1" gradientUnits="userSpaceOnUse" gradientTransform="translate(390.635 37.9788) rotate(180) scale(18.3635 18.3541)">
<stop offset="0.162" stop-color="#FFAF06"/>
<stop offset="0.7151" stop-color="#AF4B00"/>
<stop offset="1" stop-color="#661200"/>
</radialGradient>
<linearGradient id="paint24_linear_444_19766" x1="384.949" y1="21.6237" x2="387.726" y2="37.9044" gradientUnits="userSpaceOnUse">
<stop stop-color="#B41D00"/>
<stop offset="1" stop-color="#F1D0D0"/>
</linearGradient>
<linearGradient id="paint25_linear_444_19766" x1="386.853" y1="36.7588" x2="392.039" y2="36.7588" gradientUnits="userSpaceOnUse">
<stop stop-color="#F1D0D0"/>
<stop offset="1" stop-color="#FFEF89"/>
</linearGradient>
</defs>
</svg>

<svg width="565" height="91" fill="none" xmlns="http://www.w3.org/2000/svg"><path d="m381.726 34.062 1.593-1.133 2.023-1.44 2.972-2.175 1.869-1.347 4.597-3.308 9.04 1.286 1.502.245 20.868 2.94 9.715 1.348 9.622 1.348 1.961.276L494.19.952 513.833.34l.122.03 40.359 3.645 5.148 2.39 5.117 7.87-26.292-.06-5.547 7.687-17.099 23.645-20.808 28.791L482.821 91l-51.268-7.136-15.72-15.743-34.107-34.06z" fill="url(#a)"/><path opacity=".5" d="m463.699 21.29 25.557-17.06c2.299 5.482 4.413 11.822 5.179 17.366 1.808 13.262 5.915 14.242 16.089 21.562a15.041 15.041 0 0 0 5.117 2.39l-20.807 28.79c-4.811-4.9-9.776-10.413-10.266-17.948-.766-12.65 1.593-19.97-13.851-29.25-2.605-1.562-4.934-3.584-7.018-5.85z" fill="url(#b)"/><path opacity=".5" d="m381.726 34.062 1.593-1.133 6.895-4.962 4.597-3.308 9.04 1.286 1.471.215 30.583 4.288c7.63 4.165 14.004 10.873 14.004 10.873l-18.356 42.481-49.827-49.74z" fill="url(#c)"/><path d="m447.488 32.102-1.961-.276-9.622-1.348-9.714-1.347-20.869-2.94-1.502-.246-9.04-1.286-4.596 3.308 59.633 13.384-2.298-9.25h-.031z" fill="url(#d)"/><path d="m513.955.37-.122-.03-19.643.612-46.671 31.15 2.298 9.25.092.03L513.955.37z" fill="url(#e)"/><path d="m538.287 14.214 7.324-4.992 8.703-5.207 5.148 2.39 5.118 7.87-26.293-.06z" fill="url(#f)"/><path d="m538.287 14.214 13.238-3.798 4.229.735 1.624 3.094-19.091-.03z" fill="url(#g)"/><path opacity=".5" d="M538.286 14.214 482.82 91l49.491-82.911 12.932-4.9 9.07.826-16.027 10.2z" fill="url(#h)"/><path d="M532.311 22.484 482.821 91l-51.237-7.136s47.928 4.716 50.379 3.89c2.421-.828 50.348-65.27 50.348-65.27z" fill="url(#i)"/><path d="m381.726 34.062 1.593-1.133 2.053-1.47 2.973-2.175 1.869-1.348 4.597-3.308 9.04 1.287 1.471.214 20.868 2.94-4.964 5.79c-17.62 6.217-13.943 18.958-5.393 33.2l-34.107-33.997z" fill="url(#j)" style="mix-blend-mode:lighten" opacity=".5"/><path d="m183.274 34.062-1.594-1.133-2.022-1.44-2.973-2.175-1.869-1.347-4.597-3.308-9.04 1.286-1.501.245-20.869 2.94-9.714 1.348-9.622 1.348-1.962.276L70.81.952 51.167.34l-.123.03-40.358 3.645-5.149 2.39-5.117 7.87 26.293-.06 5.546 7.687 17.1 23.645 20.807 28.791L82.18 91l51.267-7.136 15.721-15.743 34.107-34.06z" fill="url(#k)"/><path opacity=".5" d="M101.3 21.29 75.743 4.23c-2.298 5.482-4.413 11.822-5.179 17.366-1.808 13.262-5.914 14.242-16.088 21.562a15.051 15.051 0 0 1-5.118 2.39l20.808 28.79c4.81-4.9 9.775-10.413 10.266-17.948.766-12.65-1.594-19.97 13.85-29.25 2.606-1.562 4.934-3.584 7.018-5.85z" fill="url(#l)"/><path opacity=".5" d="m183.274 34.062-1.593-1.133-6.895-4.962-4.597-3.308-9.04 1.286-1.471.215-30.583 4.288c-7.63 4.165-14.004 10.873-14.004 10.873l18.325 42.543 49.858-49.802z" fill="url(#m)"/><path d="M117.511 32.102 70.809.952 51.167.34l-.123.03 64.046 40.981 2.513-9.25h-.092z" fill="url(#n)"/><path d="m174.816 27.967-4.596-3.308-9.04 1.286-1.502.245-20.869 2.94-9.714 1.348-9.622 1.348-1.869.276-2.513 9.25v.03l59.725-13.415z" fill="url(#o)"/><path d="m26.713 14.214-7.324-4.992-8.703-5.207-5.149 2.39-5.117 7.87 26.293-.06z" fill="url(#p)"/><path d="m26.712 14.214-13.238-3.798-4.229.735-1.777 3.094 19.244-.03z" fill="url(#q)"/><path opacity=".5" d="M26.713 14.214 82.179 91l-49.49-77.858-10.45-10.168-10.388 1.041 14.862 10.2z" fill="url(#r)"/><path d="M32.688 22.484 82.178 91l51.238-7.136s-47.928 4.716-50.38 3.89c-2.42-.828-50.348-65.27-50.348-65.27z" fill="url(#s)"/><path d="m183.274 34.062-1.593-1.133-2.053-1.47-2.973-2.175-1.869-1.348-4.597-3.308-9.04 1.287-1.471.214-20.868 3.002 4.964 5.788c17.62 6.218 13.943 18.96 5.393 33.202l34.107-34.06z" fill="url(#t)" style="mix-blend-mode:lighten" opacity=".5"/><path d="M167.154 31.06c0-6.218 5.057-11.272 11.277-11.272 6.221 0 11.277 5.054 11.277 11.272 0 6.217-5.056 11.27-11.277 11.27-6.22.032-11.277-5.022-11.277-11.27z" fill="url(#u)"/><path opacity=".5" d="M170.832 39.36c-1.44-1.593-2.329-3.675-2.329-6.003a8.97 8.97 0 0 1 8.979-8.974 8.97 8.97 0 0 1 8.979 8.974c0 4.809-3.77 8.698-8.52 8.943.154 0 .307.062.46.062 6.221 0 11.277-5.054 11.277-11.272 0-6.217-5.056-11.27-11.277-11.27-6.221 0-11.277 5.053-11.277 11.27.031 3.278 1.471 6.218 3.708 8.27z" fill="url(#v)"/><path d="M175.613 39.605c2.114.521 3.861-3.001 1.164-4.012-2.696-1.01-3.217-2.848-3.677-.827-.46 2.022.337 4.288 2.513 4.84z" fill="url(#w)"/><path d="M397.844 31.06c0-6.218-5.056-11.271-11.277-11.271-6.221 0-11.277 5.053-11.277 11.27 0 6.218 5.056 11.272 11.277 11.272 6.221.03 11.277-5.023 11.277-11.271z" fill="url(#x)"/><path opacity=".5" d="M394.166 39.36c1.441-1.593 2.329-3.675 2.329-6.003a8.969 8.969 0 0 0-8.978-8.974 8.97 8.97 0 0 0-8.979 8.974c0 4.809 3.769 8.698 8.519 8.943-.153 0-.306.062-.46.062-6.22 0-11.277-5.054-11.277-11.272 0-6.217 5.057-11.27 11.277-11.27 6.221 0 11.277 5.053 11.277 11.27-.03 3.278-1.47 6.218-3.708 8.27z" fill="url(#y)"/><path d="M389.386 39.605c-2.114.521-3.861-3.001-1.164-4.012 2.697-1.01 3.218-2.848 3.677-.827.46 2.022-.337 4.288-2.513 4.84z" fill="url(#z)"/><defs><linearGradient id="n" x1="105.632" y1="27.613" x2="48.884" y2="-1.287" gradientUnits="userSpaceOnUse"><stop stop-color="#AF4B00"/><stop offset="1" stop-color="#661200"/></linearGradient><linearGradient id="a" x1="425.757" y1="88.07" x2="480.435" y2="14.273" gradientUnits="userSpaceOnUse"><stop stop-color="#BF4A00"/><stop offset=".729" stop-color="#FFAF06"/><stop offset="1" stop-color="#FF9404"/></linearGradient><linearGradient id="c" x1="473.755" y1="59.949" x2="367.68" y2="49.978" gradientUnits="userSpaceOnUse"><stop stop-color="#B41D00"/><stop offset="1" stop-color="#F1D0D0"/></linearGradient><linearGradient id="d" x1="415.109" y1="32.086" x2="381.732" y2="27.808" gradientUnits="userSpaceOnUse"><stop stop-color="#AF4B00"/><stop offset="1" stop-color="#661200"/></linearGradient><linearGradient id="e" x1="474.941" y1="19.966" x2="441" y2="15.616" gradientUnits="userSpaceOnUse"><stop stop-color="#AF4B00"/><stop offset="1" stop-color="#661200"/></linearGradient><linearGradient id="f" x1="551.542" y1="-8.813" x2="551.41" y2="18.699" gradientUnits="userSpaceOnUse"><stop stop-color="#AF4B00"/><stop offset="1" stop-color="#661200"/></linearGradient><linearGradient id="g" x1="547.942" y1="12.16" x2="548.719" y2="-3.065" gradientUnits="userSpaceOnUse"><stop stop-color="#550900"/><stop offset="1" stop-color="#961E00"/></linearGradient><linearGradient id="h" x1="519.308" y1="-106.641" x2="518.169" y2="129" gradientUnits="userSpaceOnUse"><stop stop-color="#F9B900"/><stop offset="1" stop-color="#FFEB67"/></linearGradient><linearGradient id="i" x1="517.31" y1="-22.12" x2="484.099" y2="48.647" gradientUnits="userSpaceOnUse"><stop stop-color="#F9B900"/><stop offset="1" stop-color="#FFEB67"/></linearGradient><linearGradient id="j" x1="403.453" y1="35.338" x2="410.535" y2="-17.261" gradientUnits="userSpaceOnUse"><stop stop-color="#B41D00"/><stop offset="1" stop-color="#F1D0D0"/></linearGradient><linearGradient id="k" x1="160.287" y1="5.39" x2="66.549" y2="46.383" gradientUnits="userSpaceOnUse"><stop stop-color="#BF4A00"/><stop offset=".729" stop-color="#FFAF06"/><stop offset="1" stop-color="#FF9404"/></linearGradient><linearGradient id="l" x1="55.174" y1="-9.471" x2="75.811" y2="34.503" gradientUnits="userSpaceOnUse"><stop stop-color="#F9B900"/><stop offset="1" stop-color="#FFEB67"/></linearGradient><linearGradient id="m" x1="91.244" y1="59.949" x2="197.322" y2="49.978" gradientUnits="userSpaceOnUse"><stop stop-color="#B41D00"/><stop offset="1" stop-color="#F1D0D0"/></linearGradient><linearGradient id="b" x1="509.825" y1="-9.471" x2="489.187" y2="34.503" gradientUnits="userSpaceOnUse"><stop stop-color="#F9B900"/><stop offset="1" stop-color="#FFEB67"/></linearGradient><linearGradient id="o" x1="177.781" y1="21.044" x2="102.496" y2="42.503" gradientUnits="userSpaceOnUse"><stop stop-color="#AF4B00"/><stop offset="1" stop-color="#661200"/></linearGradient><linearGradient id="p" x1="13.452" y1="-8.813" x2="13.583" y2="18.699" gradientUnits="userSpaceOnUse"><stop stop-color="#AF4B00"/><stop offset="1" stop-color="#661200"/></linearGradient><linearGradient id="q" x1="16.976" y1="12.163" x2="16.202" y2="-3.062" gradientUnits="userSpaceOnUse"><stop stop-color="#550900"/><stop offset="1" stop-color="#961E00"/></linearGradient><linearGradient id="r" x1="46.275" y1="-107.123" x2="47.414" y2="129.09" gradientUnits="userSpaceOnUse"><stop stop-color="#F9B900"/><stop offset="1" stop-color="#FFEB67"/></linearGradient><linearGradient id="s" x1="47.69" y1="-22.12" x2="80.901" y2="48.647" gradientUnits="userSpaceOnUse"><stop stop-color="#F9B900"/><stop offset="1" stop-color="#FFEB67"/></linearGradient><linearGradient id="t" x1="161.547" y1="35.338" x2="154.464" y2="-17.261" gradientUnits="userSpaceOnUse"><stop stop-color="#B41D00"/><stop offset="1" stop-color="#F1D0D0"/></linearGradient><linearGradient id="y" x1="384.949" y1="21.624" x2="387.726" y2="37.904" gradientUnits="userSpaceOnUse"><stop stop-color="#B41D00"/><stop offset="1" stop-color="#F1D0D0"/></linearGradient><linearGradient id="v" x1="180.049" y1="21.624" x2="177.272" y2="37.904" gradientUnits="userSpaceOnUse"><stop stop-color="#B41D00"/><stop offset="1" stop-color="#F1D0D0"/></linearGradient><linearGradient id="w" x1="178.146" y1="36.759" x2="172.963" y2="36.759" gradientUnits="userSpaceOnUse"><stop stop-color="#F1D0D0"/><stop offset="1" stop-color="#FFEF89"/></linearGradient><linearGradient id="z" x1="386.853" y1="36.759" x2="392.039" y2="36.759" gradientUnits="userSpaceOnUse"><stop stop-color="#F1D0D0"/><stop offset="1" stop-color="#FFEF89"/></linearGradient><radialGradient id="x" cx="0" cy="0" r="1" gradientUnits="userSpaceOnUse" gradientTransform="matrix(-18.3635 0 0 -18.3541 390.635 37.979)"><stop offset=".162" stop-color="#FFAF06"/><stop offset=".715" stop-color="#AF4B00"/><stop offset="1" stop-color="#661200"/></radialGradient><radialGradient id="u" cx="0" cy="0" r="1" gradientUnits="userSpaceOnUse" gradientTransform="matrix(18.3635 0 0 18.3541 174.363 37.979)"><stop offset=".162" stop-color="#FFAF06"/><stop offset=".715" stop-color="#AF4B00"/><stop offset="1" stop-color="#661200"/></radialGradient></defs></svg>
